public/app/img/vk.svg

<svg width="20px" height="12px" viewBox="0 0 20 12" version="1.1" xmlns="http://www.w3.org/2000/svg" xmlns:xlink="http://www.w3.org/1999/xlink">
    <g id="Symbols" stroke="none" stroke-width="1" fill="none" fill-rule="evenodd">
        <g id="icon/vk" fill-rule="nonzero" fill="#3C6A9E">
            <path d="M19.1738678,9.16935418 C18.5783179,8.45502596 17.8774636,7.8453802 17.2143365,7.1980073 C16.6160918,6.61448032 16.5783647,6.27597249 17.0592821,5.6024808 C17.5841455,4.86742338 18.1486016,4.16055767 18.6782326,3.42881692 C19.172624,2.74496062 19.6780019,2.06296995 19.9381534,1.24416656 C20.1031578,0.723241777 19.9572242,0.49314766 19.4230328,0.401939182 C19.3309951,0.385977698 19.2358481,0.38514853 19.1421521,0.38514853 L15.9728648,0.381417274 C15.5825339,0.375613098 15.366743,0.545799827 15.2286865,0.89177017 C15.042331,1.35942091 14.8501713,1.82665708 14.6281616,2.27793175 C14.124442,3.30112505 13.5618516,4.29011516 12.7731055,5.12757483 C12.5991875,5.312272 12.4068205,5.54568279 12.1161972,5.4494993 C11.752607,5.31683242 11.645437,4.71775855 11.6514485,4.51523427 L11.6483391,0.857152407 C11.5778599,0.334569283 11.4619836,0.101573078 10.9431318,0 L7.65092027,0.00062187599 C7.21146123,0.00062187599 6.99110984,0.170394021 6.7564553,0.445263209 C6.62109363,0.604048879 6.5802571,0.707073001 6.85844296,0.759725168 C7.40486467,0.863371167 7.71269328,1.21701131 7.79436633,1.76488406 C7.92537487,2.64027816 7.91625402,3.51919623 7.84079974,4.3981143 C7.81861949,4.65474179 7.7744663,4.9107474 7.67268593,5.15037695 C7.51348567,5.52702651 7.2564436,5.60372455 6.91876494,5.3719721 C6.61300924,5.1621926 6.39825473,4.86617962 6.18806065,4.5689229 C5.39848543,3.45327737 4.76852505,2.25015462 4.25485549,0.985880737 C4.10643442,0.620632238 3.8504288,0.399244386 3.46341464,0.393232918 C2.51256625,0.378100602 1.56151057,0.375613098 0.610662182,0.394062086 C0.0385362711,0.40484127 -0.132065042,0.682612545 0.100931162,1.20125712 C1.13656198,3.50489308 2.28931277,5.74447581 3.79404538,7.78464365 C4.56662265,8.83167552 5.4536251,9.75599054 6.59953526,10.4110332 C7.89821962,11.1535532 9.29619685,11.377014 10.7685919,11.308193 C11.4580451,11.2758555 11.6651298,11.0965479 11.6970528,10.4093749 C11.7186111,9.93923666 11.7718852,9.47179321 12.0038449,9.04933212 C12.2314515,8.63474812 12.5761781,8.55576987 12.9735569,8.81364112 C13.1723499,8.94278403 13.3398418,9.10716659 13.4980056,9.28046269 C13.8860562,9.7049967 14.2602183,10.1423828 14.6629866,10.5526137 C15.1681572,11.0666978 15.7666092,11.3703806 16.5190792,11.3084003 L19.4319463,11.3090222 C19.9012554,11.278343 20.1446162,10.7029004 19.8751366,10.1790735 C19.685879,9.81216667 19.4375432,9.48547448 19.1738678,9.16935418 Z" id="Shape"></path>
        </g>
    </g>
</svg>

<svg width="20" height="12" viewBox="0 0 20 12" xmlns="http://www.w3.org/2000/svg"><path d="M19.17387 9.16935c-.59555-.71432-1.2964-1.32397-1.95953-1.97134-.59825-.58352-.63598-.92203-.15506-1.59552.52487-.73506 1.08932-1.44192 1.61895-2.17366.4944-.68386.99977-1.36585 1.25992-2.18465.165-.52093.01907-.75102-.51512-.84223-.09203-.01596-.18718-.0168-.28088-.0168l-3.1693-.00372c-.39032-.0058-.6061.16438-.74416.51035-.18637.46765-.37853.9349-.60054 1.38616-.50372 1.0232-1.0663 2.0122-1.85505 2.84964-.1739.1847-.36628.4181-.6569.32193-.3636-.13267-.47076-.73174-.46475-.93427l-.0031-3.65808C11.57784.33457 11.46197.10157 10.94312 0l-3.2922.00062c-.43947 0-.65982.16977-.89447.44464-.13537.1588-.1762.2618.10198.31447.54642.10364.85425.45728.93593 1.00515.131.8754.12188 1.75432.04643 2.63323-.02218.25664-.06633.51265-.1681.75228-.1592.37665-.41626.45334-.75394.2216-.30575-.2098-.5205-.5058-.7307-.80306C5.3985 3.45328 4.76853 2.25015 4.25486.98588 4.10643.62063 3.85043.39924 3.4634.39323 2.51258.3781 1.5615.3756.61067.39406c-.57212.01078-.74273.28855-.50973.8072C1.13656 3.5049 2.2893 5.74448 3.79405 7.78464c.77257 1.04704 1.65958 1.97135 2.8055 2.6264 1.29867.7425 2.69665.96597 4.16904.89715.68945-.03234.89653-.21165.92845-.89883.02156-.47013.07484-.93758.3068-1.36004.2276-.41458.57233-.49356.9697-.2357.1988.12915.3663.29354.52446.46683.38806.42454.76222.86192 1.165 1.27215.50516.5141 1.1036.81778 1.85608.7558l2.91287.00062c.4693-.03068.71267-.60612.4432-1.12995-.18927-.3669-.4376-.6936-.70128-1.00972z" fill-rule="nonzero" fill="#3C6A9E"/></svg>
